korla/apps/scalable/com.github.parnold-x.timer.svg

<svg width="48" height="48" xmlns="http://www.w3.org/2000/svg">
 <path d="m16.939 32.684c-1.0714-.0568-2.3.43472-3.2793 1.4141l-4.242 4.242c-1.567 1.567-1.8823 3.774-.7071 4.949s3.3821.86 4.9491-.707l4.2422-4.2422c1.5669-1.5669 1.8822-3.774.70703-4.9492-.4407-.4407-1.0271-.67295-1.6699-.70703zm13.439 0c-.64283.03408-1.2273.26633-1.668.70703-1.1752 1.1752-.85992 3.3823.70703 4.9492l4.2422 4.2422c1.5669 1.5669 3.774 1.8822 4.9492.70703s.85992-3.3823-.70703-4.9492l-4.2422-4.2422c-.97934-.97934-2.2099-1.4709-3.2812-1.4141z" fill="#4f4f4f"/>
 <path d="m19.27 35.78c-.13987.87662-.60118 1.7945-1.3672 2.5605l-4.2422 4.2422c-1.568 1.567-3.7749 1.882-4.9501.707-.3739-.374-.5803-.858-.6601-1.387-.14573.91599.059816 1.7864.66016 2.3867 1.1752 1.1752 3.3823.85992 4.9492-.70703l4.2422-4.2422c1.068-1.068 1.5378-2.4272 1.3672-3.5605zm8.7812 0c-.17058 1.1334.29916 2.4925 1.3672 3.5605l4.2422 4.2422c1.5669 1.5669 3.774 1.8822 4.9492.70703.60034-.60034.80588-1.4707.66016-2.3867-.0798.52909-.28617 1.0127-.66016 1.3867-1.1752 1.1752-3.3823.85992-4.9492-.70703l-4.242-4.242c-.766-.766-1.227-1.684-1.367-2.561z" opacity=".2"/>
 <path d="m8 4a7 7 0 0 0-7 7 7 7 0 0 0 7 7 7 7 0 0 0 7-7 7 7 0 0 0-7-7zm32 0a7 7 0 0 0-7 7 7 7 0 0 0 7 7 7 7 0 0 0 7-7 7 7 0 0 0-7-7z" fill="#48a040"/>
 <path d="m8 4a7 7 0 0 0 -7 7 7 7 0 0 0 .0234.459 7 7 0 0 1 6.9766-6.459 7 7 0 0 1 6.977 6.541 7 7 0 0 0 .023-.541 7 7 0 0 0 -7-7zm32 0a7 7 0 0 0 -7 7 7 7 0 0 0 .02344.45898 7 7 0 0 1 6.977-6.459 7 7 0 0 1 6.977 6.541 7 7 0 0 0 .023-.541 7 7 0 0 0 -7-7z" fill="#fff" opacity=".2"/>
 <rect x="4" y="4" width="40" height="40" rx="20" fill="#48a040"/>
 <path d="m24 4.0182c-11.07 0-19.982 8.9119-19.982 19.982 0 .16757-.004.33299 0 .49955.2644-10.837 9.08-19.483 19.982-19.483s19.718 8.6458 19.982 19.482c.004-.16656 0-.33198 0-.49955 0-11.069-8.912-19.981-19.982-19.981z" fill="#fff" opacity=".2"/>
 <rect transform="matrix(0 -1 -1 0 0 0)" x="-41" y="-41" width="34" height="34" rx="17" fill="#fff" opacity=".7"/>
 <path d="m24 8c-1.104569 0-2 .8954305-2 2 0 1.10457.895431 2 2 2s2-.89543 2-2c0-1.1045695-.895431-2-2-2zm7.972656 8.945312c-.1289.01617-.257015.057704-.376953.126954l-8.310547 4.798828c-1.1337.56455-1.563015 2.041884-1.103515 2.896484l3.021484 5.232422c.55349.95867 1.770869 1.284509 2.730469.730469.95956-.554 1.285892-1.771769.732422-2.730469l-3-5.195312 6.929687-4c.47978-.277001.642125-.887578.365235-1.367188-.207668-.359685-.601582-.540695-.988282-.492188zm-21.972656 5.054688c-1.1045695 0-2 .895431-2 2s.8954305 2 2 2c1.104569 0 2-.895431 2-2s-.895431-2-2-2zm28 0c-1.104569 0-2 .895431-2 2s.895431 2 2 2 2-.895431 2-2-.895431-2-2-2zm-14 14c-1.104569 0-2 .895431-2 2s.895431 2 2 2 2-.895431 2-2-.895431-2-2-2z" opacity=".7"/>
 <path d="m4.0117 24.5c-.0041.167-.0117.332-.0117.5 0 11.08 8.92 20 20 20s20-8.92 20-20c0-.16787-.0076-.33314-.01172-.5-.264 10.846-9.076 19.5-19.988 19.5s-19.724-8.654-19.988-19.5z" opacity=".2"/>
</svg>

<svg xmlns="http://www.w3.org/2000/svg" width="48" height="48" version="1">
 <path fill="#4f4f4f" d="m16.939 32.684c-1.0714-0.0568-2.3 0.43472-3.2793 1.4141l-4.242 4.242c-1.567 1.567-1.8823 3.774-0.7071 4.949s3.3821 0.86 4.9491-0.707l4.2422-4.2422c1.5669-1.5669 1.8822-3.774 0.70703-4.9492-0.4407-0.4407-1.0271-0.67295-1.6699-0.70703zm13.439 0c-0.64283 0.03408-1.2273 0.26633-1.668 0.70703-1.1752 1.1752-0.85992 3.3823 0.70703 4.9492l4.2422 4.2422c1.5669 1.5669 3.774 1.8822 4.9492 0.70703s0.85992-3.3823-0.70703-4.9492l-4.2422-4.2422c-0.97934-0.97934-2.2099-1.4709-3.2812-1.4141z"/>
 <path opacity=".2" d="m19.27 35.78c-0.13987 0.87662-0.60118 1.7945-1.3672 2.5605l-4.2422 4.2422c-1.568 1.567-3.7749 1.882-4.9501 0.707-0.3739-0.374-0.5803-0.858-0.6601-1.387-0.14573 0.91599 0.059816 1.7864 0.66016 2.3867 1.1752 1.1752 3.3823 0.85992 4.9492-0.70703l4.2422-4.2422c1.068-1.068 1.5378-2.4272 1.3672-3.5605zm8.7812 0c-0.17058 1.1334 0.29916 2.4925 1.3672 3.5605l4.2422 4.2422c1.5669 1.5669 3.774 1.8822 4.9492 0.70703 0.60034-0.60034 0.80588-1.4707 0.66016-2.3867-0.0798 0.52909-0.28617 1.0127-0.66016 1.3867-1.1752 1.1752-3.3823 0.85992-4.9492-0.70703l-4.242-4.242c-0.766-0.766-1.227-1.684-1.367-2.561z"/>
 <path fill="#48a040" d="m8 4a7 7 0 0 0 -7 7 7 7 0 0 0 7 7 7 7 0 0 0 7 -7 7 7 0 0 0 -7 -7zm32 0a7 7 0 0 0 -7 7 7 7 0 0 0 7 7 7 7 0 0 0 7 -7 7 7 0 0 0 -7 -7z"/>
 <path fill="#fff" opacity=".2" d="m8 4a7 7 0 0 0 -7 7 7 7 0 0 0 0.0234 0.459 7 7 0 0 1 6.9766 -6.459 7 7 0 0 1 6.977 6.541 7 7 0 0 0 0.023 -0.541 7 7 0 0 0 -7 -7zm32 0a7 7 0 0 0 -7 7 7 7 0 0 0 0.02344 0.45898 7 7 0 0 1 6.977 -6.459 7 7 0 0 1 6.977 6.541 7 7 0 0 0 0.023 -0.541 7 7 0 0 0 -7 -7z"/>
 <rect fill="#48a040" width="40" height="40" x="4" y="4" rx="20" ry="20"/>
 <path fill="#fff" opacity=".2" d="m24 4.0182c-11.07 0-19.982 8.9119-19.982 19.982 0 0.16757-0.004 0.33299 0 0.49955 0.2644-10.837 9.08-19.483 19.982-19.483s19.718 8.6458 19.982 19.482c0.004-0.16656 0-0.33198 0-0.49955 0-11.069-8.912-19.981-19.982-19.981z"/>
 <rect style="opacity:0.7;fill:#ffffff" width="34" height="34" x="-41" y="-41" rx="17" ry="17" transform="matrix(0,-1,-1,0,0,0)"/>
 <path style="opacity:0.7" d="M 24 8 C 22.895431 8 22 8.8954305 22 10 C 22 11.10457 22.895431 12 24 12 C 25.104569 12 26 11.10457 26 10 C 26 8.8954305 25.104569 8 24 8 z M 31.972656 16.945312 C 31.843756 16.961482 31.715641 17.003016 31.595703 17.072266 L 23.285156 21.871094 C 22.151456 22.435644 21.722141 23.912978 22.181641 24.767578 L 25.203125 30 C 25.756615 30.95867 26.973994 31.284509 27.933594 30.730469 C 28.893154 30.176469 29.219486 28.9587 28.666016 28 L 25.666016 22.804688 L 32.595703 18.804688 C 33.075483 18.527687 33.237828 17.91711 32.960938 17.4375 C 32.75327 17.077815 32.359356 16.896805 31.972656 16.945312 z M 10 22 C 8.8954305 22 8 22.895431 8 24 C 8 25.104569 8.8954305 26 10 26 C 11.104569 26 12 25.104569 12 24 C 12 22.895431 11.104569 22 10 22 z M 38 22 C 36.895431 22 36 22.895431 36 24 C 36 25.104569 36.895431 26 38 26 C 39.104569 26 40 25.104569 40 24 C 40 22.895431 39.104569 22 38 22 z M 24 36 C 22.895431 36 22 36.895431 22 38 C 22 39.104569 22.895431 40 24 40 C 25.104569 40 26 39.104569 26 38 C 26 36.895431 25.104569 36 24 36 z"/>
 <path opacity=".2" d="m4.0117 24.5c-0.0041 0.167-0.0117 0.332-0.0117 0.5 0 11.08 8.92 20 20 20s20-8.92 20-20c0-0.16787-0.0076-0.33314-0.01172-0.5-0.264 10.846-9.076 19.5-19.988 19.5s-19.724-8.654-19.988-19.5z"/>
</svg>
